X:1
T:[ID 5-6b]
T:[ID 5-6b]
T:Bezeichnung standardisiert: Tantz Tantz
T:Urheber unbekannt Datum in der hier transkribierten schriftlichen Quelle: 1773
C:Urheber unbekannt
C:Datum in der hier transkribierten schriftlichen Quelle: 1773
L:1/8
M:2/4
K:D
V:1 treble 
V:1
 d2 f2 | e2 ag | f2 Te2({de)} | d3 e | fdba | ^g2{fg} ad | c2 B2({AB)} | A4 :: e2 f2 | ecde | %10
 fagf | e3 A | d2 fd | ebag | f2 Te2({de)} | d4 :| %16

